src/icons/cloudformation.svg

<?xml version="1.0" encoding="UTF-8"?>
<svg xmlns="http://www.w3.org/2000/svg" xmlns:xlink="http://www.w3.org/1999/xlink" width="26.46777" height="32" viewBox="0 0 26.46777 32" version="1.1">
<g id="surface1">
<path style=" stroke:none;fill-rule:nonzero;fill:rgb(71.764708%,79.215688%,61.56863%);fill-opacity:1;" d="M 2.246094 21.90625 L 2.460938 22.152344 L 13.320312 25.230469 L 13.367188 23.324219 L 5.769531 21.414062 L 5.394531 21.28125 L 2.25 21.910156 "/>
<path style=" stroke:none;fill-rule:nonzero;fill:rgb(71.764708%,79.215688%,61.56863%);fill-opacity:1;" d="M 24.277344 21.90625 L 13.1875 25.609375 L 13.152344 23.324219 L 20.753906 21.414062 L 21.089844 21.042969 L 24.277344 21.910156 "/>
<path style=" stroke:none;fill-rule:nonzero;fill:rgb(23.529412%,28.627452%,16.078432%);fill-opacity:1;" d="M 13.152344 8.832031 L 20.753906 10.605469 L 24.097656 10.445312 L 24.273438 10.109375 L 13.675781 6.296875 L 13.148438 8.832031 "/>
<path style=" stroke:none;fill-rule:nonzero;fill:rgb(45.882353%,61.176473%,24.313726%);fill-opacity:1;" d="M 5.765625 21.414062 L 2.246094 21.910156 L 2.148438 21.542969 L 2.148438 10.496094 L 2.246094 10.113281 L 5.425781 10.351562 L 5.765625 10.609375 L 5.765625 21.417969 "/>
<path style=" stroke:none;fill-rule:nonzero;fill:rgb(23.529412%,28.627452%,16.078432%);fill-opacity:1;" d="M 13.367188 8.832031 L 5.769531 10.605469 L 2.246094 10.109375 L 2.378906 9.902344 L 13.320312 6.789062 L 13.367188 8.832031 "/>
<path style=" stroke:none;fill-rule:nonzero;fill:rgb(29.411766%,38.039216%,17.254902%);fill-opacity:1;" d="M 13.246094 0.617188 L 0.617188 6.992188 L 0.621094 25.03125 L 13.246094 31.402344 L 13.4375 31.117188 L 13.4375 0.988281 Z M 9.558594 24.101562 L 2.246094 21.910156 L 2.246094 10.109375 L 9.558594 7.917969 Z M 20.765625 21.414062 L 24.28125 21.90625 L 24.472656 21.558594 L 24.472656 10.445312 L 24.28125 10.109375 L 20.765625 10.605469 L 20.765625 21.414062 "/>
<path style=" stroke:none;fill-rule:nonzero;fill:rgb(45.882353%,61.176473%,24.313726%);fill-opacity:1;" d="M 13.246094 31.402344 L 25.898438 25.03125 L 25.90625 6.992188 L 13.246094 0.617188 Z M 16.96875 7.917969 L 24.28125 10.109375 L 24.28125 21.910156 L 16.96875 24.101562 Z M 16.96875 7.917969 "/>
</g>
</svg>

<svg role="img" viewBox="0 0 26.468 32" xmlns="http://www.w3.org/2000/svg"><path d="m2.246 21.906.215.246 10.86 3.078.046-1.906-7.597-1.91-.375-.133-3.145.63m22.027-.005-11.09 3.703-.035-2.285 7.602-1.91.336-.371 3.187.867" style="stroke:none;fill-rule:nonzero;fill:rgb(71.764708%,79.215688%,61.56863%);fill-opacity:1"/><path d="m13.152 8.832 7.602 1.773 3.344-.16.175-.336-10.597-3.812-.528 2.535" style="stroke:none;fill-rule:nonzero;fill:rgb(23.529412%,28.627452%,16.078432%);fill-opacity:1"/><path d="m5.766 21.414-3.52.496-.098-.367V10.496l.098-.383 3.18.239.34.257v10.809" style="stroke:none;fill-rule:nonzero;fill:rgb(45.882353%,61.176473%,24.313726%);fill-opacity:1"/><path d="M13.367 8.832 5.77 10.605l-3.524-.496.133-.207L13.32 6.79z" style="stroke:none;fill-rule:nonzero;fill:rgb(23.529412%,28.627452%,16.078432%);fill-opacity:1"/><path d="M13.246.617.617 6.992l.004 18.04 12.625 6.37.191-.285V.988ZM9.56 24.102 2.246 21.91v-11.8L9.56 7.917Zm11.207-2.688 3.515.492.192-.347V10.445l-.192-.336-3.515.496z" style="stroke:none;fill-rule:nonzero;fill:rgb(29.411766%,38.039216%,17.254902%);fill-opacity:1"/><path d="m13.246 31.402 12.652-6.37.008-18.04L13.246.617ZM16.97 7.918l7.312 2.191V21.91l-7.312 2.192Zm0 0" style="stroke:none;fill-rule:nonzero;fill:rgb(45.882353%,61.176473%,24.313726%);fill-opacity:1"/></svg>
